X:1
T:St. Magnus, CM
T:St. Magnus, CM
T:Attributed to Jeremiah Clarke, 1707
T:Public Domain Courtesy of the Cyber Hymnal™
C:Attributed to Jeremiah Clarke, 1707
Z:Public Domain
Z:Courtesy of the Cyber Hymnal™
%%score ( 1 2 ) ( 3 4 )
L:1/8
Q:1/4=107
M:4/4
K:G
V:1 treble 
V:2 treble 
V:3 bass 
V:4 bass 
V:1
 [B,D]2 | [B,G]2 [EA]2 [DF]2 D2 x | [DG]2 [DA]2 [DB]2 [DA]2 | [DB]2 [DG]2 [DB]2 [G^c]2 | %4
 [Fd]6 [FA]2 | [GB]2 [FA]2 [EG]2 [DF]2 | [CE]2 [EA]2 [DF]2 D2 | d2 (dc) B2 A2 x | [B,G]6 |] %9
V:2
 x2 | x6 D2 x | x8 | x8 | x8 | x8 | x6 D2 | (GF) E2 D3 (CC) | x6 |] %9
V:3
 G,2 | [E,G,]2 [C,C]2 A,2 F,2 x | [B,,G,]2 [D,F,]2 [G,,G,]2 [D,F,]2 | %3
 [G,,G,]2 [G,B,]2 ([G,B,][F,A,]) [E,G,]2 | [D,A,]6 [D,D]2 | [G,D]2 [D,D]2 [E,B,]2 (B,A,) | %6
 [C,G,]2 [A,,C]2 [D,A,]2 F,2 | [B,,G,]2 [B,,G,]2 [D,G,]2 [D,F,]2 x | G,6 |] %9
V:4
 G,2 | x4 D,3 (C,C,) | x8 | x8 | x8 | x6 B,,2 | x6 (D,C,) | x9 | G,6 |] %9

